public/assets/icons/key.svg

<svg width="22" height="14" fill="none" xmlns="http://www.w3.org/2000/svg"><path d="M.5 4.25c0-.99456.395088-1.94839 1.09835-2.65165C2.30161.895088 3.25544.5 4.25.5h13.5c.9946 0 1.9484.395088 2.6517 1.09835C21.1049 2.30161 21.5 3.25544 21.5 4.25v6c0 .4925-.097.9801-.2855 1.4351-.1884.4549-.4646.8683-.8128 1.2166-.3483.3482-.7617.6244-1.2166.8128-.455.1885-.9426.2855-1.4351.2855H4.25c-.99456 0-1.94839-.3951-2.65165-1.0983C.895088 12.1984.5 11.2446.5 10.25v-6Zm6.219.969-.969.9705-.969-.9705c-.06973-.06973-.15252-.12505-.24362-.16279-.09111-.03773-.18876-.05716-.28738-.05716-.09862 0-.19627.01943-.28738.05716-.0911.03774-.17389.09306-.24362.16279-.06973.06973-.12505.15252-.16278.24362-.03774.09111-.05717.18876-.05717.28738 0 .09862.01943.19627.05717.28738.03773.0911.09305.17389.16278.24362l.9705.969-.9705.969c-.06973.06973-.12505.15252-.16278.24362-.03774.09111-.05717.18876-.05717.28738 0 .09862.01943.19627.05717.28738.03773.0911.09305.17389.16278.24362.14083.14083.33184.21995.531.21995.09862 0 .19627-.01943.28738-.05716.0911-.03774.17389-.09306.24362-.16279l.969-.9705.969.9705c.06973.06973.15252.12505.24362.16279.09111.03773.18876.05716.28738.05716.09862 0 .19627-.01943.28738-.05716.0911-.03774.17389-.09306.24362-.16279.06973-.06973.12505-.15252.16279-.24362.03773-.09111.05716-.18876.05716-.28738 0-.09862-.01943-.19627-.05716-.28738-.03774-.0911-.09306-.17389-.16279-.24362l-.9705-.969.9705-.969c.06973-.06973.12505-.15252.16279-.24362.03773-.09111.05716-.18876.05716-.28738 0-.09862-.01943-.19627-.05716-.28738-.03774-.0911-.09306-.17389-.16279-.24362-.06973-.06973-.15252-.12505-.24362-.16279-.09111-.03773-.18876-.05716-.28738-.05716-.09862 0-.19627.01943-.28738.05716-.0911.03774-.17389.09306-.24362.16279Zm6 0-.969.9705-.969-.9705c-.0697-.06973-.1525-.12505-.2436-.16279-.0911-.03773-.1888-.05716-.2874-.05716s-.1963.01943-.28738.05716c-.0911.03774-.17389.09306-.24362.16279-.06973.06973-.12505.15252-.16279.24362-.03773.09111-.05716.18876-.05716.28738 0 .09862.01943.19627.05716.28738.03774.0911.09306.17389.16279.24362l.9705.969-.9705.969c-.06973.06973-.12505.15252-.16279.24362-.03773.09111-.05716.18876-.05716.28738 0 .09862.01943.19627.05716.28738.03774.0911.09306.17389.16279.24362.14083.14083.3318.21995.531.21995.0986 0 .1963-.01943.2874-.05716.0911-.03774.1739-.09306.2436-.16279l.969-.9705.969.9705c.1408.14083.3318.21995.531.21995.1992 0 .3902-.07912.531-.21995.1408-.14083.2199-.33184.2199-.531s-.0791-.39017-.2199-.531l-.9705-.969.9705-.969c.1408-.14083.2199-.33184.2199-.531s-.0791-.39017-.2199-.531-.3318-.21995-.531-.21995c-.1992 0-.3902.07912-.531.21995ZM15.5 8.75c0 .19891.079.38968.2197.53033.1406.14065.3314.21967.5303.21967h1.5c.1989 0 .3897-.07902.5303-.21967.1407-.14065.2197-.33142.2197-.53033 0-.19891-.079-.38968-.2197-.53033C18.1397 8.07902 17.9489 8 17.75 8h-1.5c-.1989 0-.3897.07902-.5303.21967-.1407.14065-.2197.33142-.2197.53033Z" fill="#C5C5C7"/></svg>

<svg width="22" height="14" viewBox="0 0 22 14" fill="none" xmlns="http://www.w3.org/2000/svg">
<path d="M0.5 4.25C0.5 3.25544 0.895088 2.30161 1.59835 1.59835C2.30161 0.895088 3.25544 0.5 4.25 0.5H17.75C18.7446 0.5 19.6984 0.895088 20.4017 1.59835C21.1049 2.30161 21.5 3.25544 21.5 4.25V10.25C21.5 10.7425 21.403 11.2301 21.2145 11.6851C21.0261 12.14 20.7499 12.5534 20.4017 12.9017C20.0534 13.2499 19.64 13.5261 19.1851 13.7145C18.7301 13.903 18.2425 14 17.75 14H4.25C3.25544 14 2.30161 13.6049 1.59835 12.9017C0.895088 12.1984 0.5 11.2446 0.5 10.25V4.25ZM6.719 5.219L5.75 6.1895L4.781 5.219C4.71127 5.14927 4.62848 5.09395 4.53738 5.05621C4.44627 5.01848 4.34862 4.99905 4.25 4.99905C4.15138 4.99905 4.05373 5.01848 3.96262 5.05621C3.87152 5.09395 3.78873 5.14927 3.719 5.219C3.64927 5.28873 3.59395 5.37152 3.55622 5.46262C3.51848 5.55373 3.49905 5.65138 3.49905 5.75C3.49905 5.84862 3.51848 5.94627 3.55622 6.03738C3.59395 6.12848 3.64927 6.21127 3.719 6.281L4.6895 7.25L3.719 8.219C3.64927 8.28873 3.59395 8.37152 3.55622 8.46262C3.51848 8.55373 3.49905 8.65138 3.49905 8.75C3.49905 8.84862 3.51848 8.94627 3.55622 9.03738C3.59395 9.12848 3.64927 9.21127 3.719 9.281C3.85983 9.42183 4.05084 9.50095 4.25 9.50095C4.34862 9.50095 4.44627 9.48152 4.53738 9.44379C4.62848 9.40605 4.71127 9.35073 4.781 9.281L5.75 8.3105L6.719 9.281C6.78873 9.35073 6.87152 9.40605 6.96262 9.44379C7.05373 9.48152 7.15138 9.50095 7.25 9.50095C7.34862 9.50095 7.44627 9.48152 7.53738 9.44379C7.62848 9.40605 7.71127 9.35073 7.781 9.281C7.85073 9.21127 7.90605 9.12848 7.94379 9.03738C7.98152 8.94627 8.00095 8.84862 8.00095 8.75C8.00095 8.65138 7.98152 8.55373 7.94379 8.46262C7.90605 8.37152 7.85073 8.28873 7.781 8.219L6.8105 7.25L7.781 6.281C7.85073 6.21127 7.90605 6.12848 7.94379 6.03738C7.98152 5.94627 8.00095 5.84862 8.00095 5.75C8.00095 5.65138 7.98152 5.55373 7.94379 5.46262C7.90605 5.37152 7.85073 5.28873 7.781 5.219C7.71127 5.14927 7.62848 5.09395 7.53738 5.05621C7.44627 5.01848 7.34862 4.99905 7.25 4.99905C7.15138 4.99905 7.05373 5.01848 6.96262 5.05621C6.87152 5.09395 6.78873 5.14927 6.719 5.219V5.219ZM12.719 5.219L11.75 6.1895L10.781 5.219C10.7113 5.14927 10.6285 5.09395 10.5374 5.05621C10.4463 5.01848 10.3486 4.99905 10.25 4.99905C10.1514 4.99905 10.0537 5.01848 9.96262 5.05621C9.87152 5.09395 9.78873 5.14927 9.719 5.219C9.64927 5.28873 9.59395 5.37152 9.55621 5.46262C9.51848 5.55373 9.49905 5.65138 9.49905 5.75C9.49905 5.84862 9.51848 5.94627 9.55621 6.03738C9.59395 6.12848 9.64927 6.21127 9.719 6.281L10.6895 7.25L9.719 8.219C9.64927 8.28873 9.59395 8.37152 9.55621 8.46262C9.51848 8.55373 9.49905 8.65138 9.49905 8.75C9.49905 8.84862 9.51848 8.94627 9.55621 9.03738C9.59395 9.12848 9.64927 9.21127 9.719 9.281C9.85983 9.42183 10.0508 9.50095 10.25 9.50095C10.3486 9.50095 10.4463 9.48152 10.5374 9.44379C10.6285 9.40605 10.7113 9.35073 10.781 9.281L11.75 8.3105L12.719 9.281C12.8598 9.42183 13.0508 9.50095 13.25 9.50095C13.4492 9.50095 13.6402 9.42183 13.781 9.281C13.9218 9.14017 14.0009 8.94916 14.0009 8.75C14.0009 8.55084 13.9218 8.35983 13.781 8.219L12.8105 7.25L13.781 6.281C13.9218 6.14017 14.0009 5.94916 14.0009 5.75C14.0009 5.55084 13.9218 5.35983 13.781 5.219C13.6402 5.07817 13.4492 4.99905 13.25 4.99905C13.0508 4.99905 12.8598 5.07817 12.719 5.219V5.219ZM15.5 8.75C15.5 8.94891 15.579 9.13968 15.7197 9.28033C15.8603 9.42098 16.0511 9.5 16.25 9.5H17.75C17.9489 9.5 18.1397 9.42098 18.2803 9.28033C18.421 9.13968 18.5 8.94891 18.5 8.75C18.5 8.55109 18.421 8.36032 18.2803 8.21967C18.1397 8.07902 17.9489 8 17.75 8H16.25C16.0511 8 15.8603 8.07902 15.7197 8.21967C15.579 8.36032 15.5 8.55109 15.5 8.75Z" fill="#C5C5C7"/>
</svg>
